X: 09252
T: TIME'S A TELL TALE
B: Button & Whitaker "Button and Whitaker's Selection of Dances, Reels and Waltzes" v.9 p.25 #2
S: http://imslp.org/wiki/Button_and_Whitaker%27s_Selection_of_Dances,_Reels_and_Waltzes_(Various)
Z: 2014 John Chambers <jc:trillian.mit.edu>
M: 6/8
L: 1/8
K: D
% - - - - - - - - - - - - - - - - - - - - - - - - -
% Original staff layout preserved:
V: 1 clef=treble middle=B
A |\
d2d dcd | a2a age | d2d dcd | e2c ABc |\
d2d dcd | a2a age | d3 {f}ede | d3- d2 :|
|: F/G/ |\
A2A Adc | B2B BGF | E2E EAG | G3 F2F/G/ |\
A2A Adc | B2b bge | c2a ABc | d3- d2 :|
% - - - - - - - - - - - - - - - - - - - - - - - - -
% Original staff layout preserved:
V: 2 clef=bass middle=d
z |\
dfa dfa | cea cea | dfa Be^g | Ace a2z |\
dfa dfa | cea cea | dfa Aea | dfa d2 :|
|: z |\
FAd FAd | GBd GBd | Ace Ace | DFA d2z |\
fad' fad' | gbd' gbd' | ac'e' ac'e' | dfa d2 :|
% - - - - - - - - - - - - - - - - - - - - - - - - -
%%begintext align
%% Set and Hands 3 round, back again,
%% down the mid: up again, and Allemande.
%%endtext
% - - - - - - - - - - - - - - - - - - - - - - - - -
%%sep 2 5 100

%%sep 1 1 500
%%sep 1 1 500
